src/lib/packages/icons/src/assets/filled/envelope-check.svg

<svg width="24" height="24" viewBox="0 0 24 24" fill="none" xmlns="http://www.w3.org/2000/svg">
<path d="M12.5 16.74C12.62 13.95 14.95 11.63 17.74 11.51C18.39 11.48 19.0201 11.56 19.6001 11.74C19.8001 11.8 20 11.67 20 11.46V7C20 5 19 4 17 4H5C3 4 2 5 2 7V16C2 18 3 19 5 19H12.46C12.66 19 12.8 18.8 12.73 18.61C12.55 18.02 12.47 17.4 12.5 16.74ZM12.0291 12.179C11.7211 12.403 11.36 12.515 11 12.515C10.64 12.515 10.2779 12.403 9.97095 12.18L5.05908 8.60699C4.72408 8.36399 4.65004 7.89401 4.89404 7.55901C5.13704 7.22501 5.60389 7.149 5.94189 7.394L10.854 10.966C10.942 11.029 11.059 11.03 11.147 10.966L16.0591 7.394C16.3961 7.149 16.8639 7.22501 17.1069 7.55901C17.3509 7.89401 17.2769 8.36299 16.9419 8.60699L12.0291 12.179ZM18 13C15.791 13 14 14.791 14 17C14 19.209 15.791 21 18 21C20.209 21 22 19.209 22 17C22 14.791 20.209 13 18 13ZM19.604 16.52L17.937 18.187C17.843 18.281 17.716 18.333 17.583 18.333C17.45 18.333 17.323 18.28 17.229 18.187L16.396 17.354C16.201 17.159 16.201 16.842 16.396 16.647C16.591 16.452 16.908 16.452 17.103 16.647L17.582 17.127L18.895 15.814C19.09 15.619 19.4071 15.619 19.6021 15.814C19.7971 16.009 19.799 16.325 19.604 16.52Z" fill="currentColor"/>
</svg>

<svg xmlns="http://www.w3.org/2000/svg" width="24" height="24" fill="none"><path fill="currentColor" d="M12.5 16.74c.12-2.79 2.45-5.11 5.24-5.23.65-.03 1.28.05 1.86.23.2.06.4-.07.4-.28V7c0-2-1-3-3-3H5C3 4 2 5 2 7v9c0 2 1 3 3 3h7.46c.2 0 .34-.2.27-.39-.18-.59-.26-1.21-.23-1.87Zm-.47-4.561a1.748 1.748 0 0 1-2.059.001L5.059 8.607a.75.75 0 1 1 .883-1.213l4.912 3.572a.25.25 0 0 0 .293 0l4.912-3.572a.75.75 0 1 1 .883 1.213l-4.913 3.572ZM18 13a4 4 0 1 0 0 8 4 4 0 0 0 0-8Zm1.604 3.52-1.667 1.667a.5.5 0 0 1-.708 0l-.833-.833a.5.5 0 0 1 .707-.707l.479.48 1.313-1.313a.5.5 0 0 1 .709.706Z"/></svg>
